X:1
T:Title
%%score { ( 1 4 ) | ( 2 3 ) }
L:1/8
Q:1/4=100
M:6/8
K:G
V:1 treble nm="Grand Piano"
V:4 treble 
V:2 bass 
V:3 bass 
V:1
 B2 _B =B2 c | B2 A G3 | G2 F G2 B | [GB]3 .[FA]3 | B2 _B =B2 c | B2 A G3 | [EA]2 [EA] G2 F | %7
w: H.~A.~Lewis * * *|||||||
 A3 .[G,B,G]3 | [B,G]2 A [GB]2 B | [GB]cB [FA]3 | [FA]2 B [Ac]2 c | [Ac]dc B3 | B2 _B =B2 c | %13
w: ||||||
 B2 A G3 | [EA]2 [EA] G2 F | A3 .[B,G]3 | G2 B Bcd | c2 B c3 | c-[Gc][DFc] E-[EG]F | G2 A B3 | %20
w: |||||||
 B2 [Ac] [Bd]2 [GB] | [Gc]2 [Gd] [Ge]3 | [EGc]2 [CEA] [B,DG]2 [A,DF] | [CA]3 [B,G]3 |] %24
w: ||||
V:2
 [G,D]2 [G,^C] [G,D]2 [G,E] | [G,D]2 [D,F,C] [G,B,]3 | [G,B,D]2 [A,CD] [B,D]2 [G,DG] | %3
 [D,D]3 .[D,D]3 | [G,D]2 [G,^C] [G,D]2 [G,E] | [G,D]2 [D,F,C] [E,G,B,]3 | %6
 [C,C]2 [C,C] [D,B,D]2 [D,A,C] | [D,F,C]3 .G,,3 | z2[K:treble] C z2 G | z AG[K:bass] D,3 | %10
 z2[K:treble] G z2 A | z BA [G,G]3 | [G,D]2 [G,^C] [G,D]2 [G,E] | [G,D]2 [D,F,C] [E,G,B,]3 | %14
 [C,C]2 [C,C] [D,B,D]2 [D,A,C] | [D,F,C]3 .[G,,G,]3 | [G,B,]2[K:treble] [G,DG] D-[A,DF][B,DG] | %17
 [A,DF]2 [A,DF] [A,DF]3 | z ED, z B,[D,CD] | [G,B,D]2 [G,CD] [G,DG]3 | %20
 [G,DG]2 [G,D][K:bass] [G,D]2 [=F,D] | [E,C]2 [D,B,] [C,C]3 | C,2 C, D,2 D, | [D,F,]3 [G,,G,]3 |] %24
V:3
 x6 | x6 | x6 | x6 | x6 | x6 | x6 | x6 | G,3[K:treble] G,3 | G,3[K:bass] z3 | D,3[K:treble] D,3 | %11
 D,3 z3 | x6 | x6 | x6 | x6 | z3[K:treble] .[G,G]3 | x6 | .D,3 .D,3 | x6 | x3[K:bass] x3 | x6 | %22
 x6 | x6 |] %24
V:4
 x6 | x6 | x6 | x6 | x6 | x6 | x6 | x6 | x6 | x6 | x6 | x6 | x6 | x6 | x6 | x6 | x6 | x6 | %18
 .[FA]3 .[CA]3 | x6 | x6 | x6 | x6 | x6 |] %24

